svgs/light/user-alien.svg

<svg xmlns="http://www.w3.org/2000/svg" viewBox="0 0 448 512"><!--! Font Awesome Pro 6.0.0-alpha3 by @fontawesome - https://fontawesome.com License - https://fontawesome.com/license (Commercial License) --><path d="M206.7 378.1C211.8 382 217.9 383.1 224 383.1c6.08 0 12.16-1.957 17.27-5.873C282.6 346.3 384 259.6 384 173.6C384 65.83 312.3 0 224 0C135.6 0 64 65.83 64 173.6C64 259.6 165.4 346.3 206.7 378.1zM224 32c76.56 0 128 56.92 128 141.6c0 71.63-95.21 151.9-128 177.4c-32.88-25.57-128-105.8-128-177.4C96 88.92 147.4 32 224 32zM192 224c6.703 0 12.94-4.234 15.17-10.94c2.797-8.391-1.734-17.45-10.11-20.23l-48-16C140.6 174 131.6 178.5 128.8 186.9s1.734 17.45 10.11 20.23l48 16C188.6 223.7 190.3 224 192 224zM256 224c1.672 0 3.375-.2656 5.062-.8281l48-16c8.375-2.781 12.91-11.84 10.11-20.23S307.4 174 298.9 176.8l-48 16c-8.375 2.781-12.91 11.84-10.11 20.23C243.1 219.8 249.3 224 256 224zM320 352c-8.844 0-16 7.156-16 16S311.2 384 320 384c52.94 0 96 43.06 96 96H32c0-52.94 43.06-96 96-96c8.844 0 16-7.156 16-16S136.8 352 128 352c-70.58 0-128 57.39-128 127.1C0 497.6 14.36 512 32 512h384c17.64 0 32-14.39 32-32.03C448 409.4 390.6 352 320 352z"/></svg>

<svg xmlns="http://www.w3.org/2000/svg" viewBox="0 0 448 512"><!-- Font Awesome Pro 6.0.0-alpha2 by @fontawesome - https://fontawesome.com License - https://fontawesome.com/license (Commercial License) --><path d="M206.727 378.125C211.842 382.041 217.922 383.998 224 383.998C230.08 383.998 236.16 382.041 241.273 378.125C282.637 346.32 384 259.566 384 173.629C384 65.828 312.295 0 224 0C135.592 0 64 65.828 64 173.629C64 259.566 165.363 346.32 206.727 378.125ZM224 32C300.561 32 352 88.916 352 173.629C352 245.26 256.793 325.533 224 351.031C191.121 325.459 96 245.229 96 173.629C96 88.916 147.439 32 224 32ZM192 224C198.703 224 204.938 219.766 207.172 213.062C209.969 204.672 205.438 195.609 197.062 192.828L149.062 176.828C140.641 174 131.625 178.547 128.828 186.938S130.562 204.391 138.938 207.172L186.938 223.172C188.625 223.734 190.328 224 192 224ZM256 224C257.672 224 259.375 223.734 261.062 223.172L309.062 207.172C317.438 204.391 321.969 195.328 319.172 186.938S307.422 174 298.938 176.828L250.938 192.828C242.562 195.609 238.031 204.672 240.828 213.062C243.062 219.766 249.297 224 256 224ZM320 352C311.156 352 304 359.156 304 368S311.156 384 320 384C372.938 384 416 427.062 416 480H32C32 427.062 75.062 384 128 384C136.844 384 144 376.844 144 368S136.844 352 128 352C57.422 352 0 409.422 0 480C0 497.641 14.359 512 32 512H416C433.641 512 448 497.641 448 480C448 409.422 390.578 352 320 352Z"/></svg>
